icons/svg/24x24/minimize/outline.svg

<svg width="24" height="24" fill="none" xmlns="http://www.w3.org/2000/svg">
  <path fill-rule="evenodd" clip-rule="evenodd" d="M15 18v-2h-2v2a1 1 0 01-1 1h-2v2h2c1.654 0 3-1.346 3-3zm-7 1H6a1 1 0 01-1-1v-2H3v2c0 1.654 1.346 3 3 3h2v-2zm-3-7a1 1 0 011-1h2V9H6c-1.654 0-3 1.346-3 3v2h2v-2zm10 0c0-1.654-1.346-3-3-3h-2v2h2a1 1 0 011 1v2h2v-2zm3 9h-1v-2h1a1 1 0 001-1V7c0-1.103-.897-2-2-2H6a1 1 0 00-1 1v1H3V6c0-1.654 1.346-3 3-3h11c2.206 0 4 1.794 4 4v11c0 1.654-1.346 3-3 3z" fill="#000"/>
</svg>

<svg xmlns="http://www.w3.org/2000/svg" width="24" height="24" viewBox="0 0 24 24">
  <path fill-rule="evenodd" d="M15,18 L15,16 L13,16 L13,18 C13,18.552 12.552,19 12,19 L10,19 L10,21 L12,21 C13.654,21 15,19.654 15,18 L15,18 Z M8,19 L6,19 C5.448,19 5,18.552 5,18 L5,16 L3,16 L3,18 C3,19.654 4.346,21 6,21 L8,21 L8,19 Z M5,12 C5,11.448 5.448,11 6,11 L8,11 L8,9 L6,9 C4.346,9 3,10.346 3,12 L3,14 L5,14 L5,12 Z M15,12 C15,10.346 13.654,9 12,9 L10,9 L10,11 L12,11 C12.552,11 13,11.448 13,12 L13,14 L15,14 L15,12 Z M18,21 L17,21 L17,19 L18,19 C18.552,19 19,18.552 19,18 L19,7 C19,5.897 18.103,5 17,5 L6,5 C5.448,5 5,5.448 5,6 L5,7 L3,7 L3,6 C3,4.346 4.346,3 6,3 L17,3 C19.206,3 21,4.794 21,7 L21,18 C21,19.654 19.654,21 18,21 L18,21 Z"/>
</svg>
